static/img/home.svg

<svg enable-background="new 0 0 75 73.33" version="1.1" viewBox="0 0 75 73.33" xmlns="http://www.w3.org/2000/svg">
 <style type="text/css">.st0{fill-rule:evenodd;clip-rule:evenodd;fill:#BC83FB;}
	.st1{fill-rule:evenodd;clip-rule:evenodd;}
	.st2{fill-rule:evenodd;clip-rule:evenodd;fill:#FFFFFF;}
	.st3{fill:#BC83FB;}</style>
 <path class="st0" d="m6.88 48.09h2.36c8.85-26.71-22.49-20.42-2.36 0z"/>
 <path class="st0" d="m6.88 48.09h2.36c8.85 26.7-22.49 20.41-2.36 0z"/>
 <path d="m12.19 50.59h-7.07c-1.38 0-2.5-1.12-2.5-2.5s1.12-2.5 2.5-2.5h7.07c1.38 0 2.5 1.12 2.5 2.5s-1.12 2.5-2.5 2.5z"/>
 <path class="st0" d="M37.38,19.7V5.94c0-3.28,2.66-5.94,5.94-5.94h13.94v12.71h-6.73c-1.24,0-2.24,1.01-2.24,2.24v4.75H37.38z"/>
 <rect x="54.76" width="5" height="12.71"/>
 <path class="st1" d="m58.48 31.22-1.16-9.37c-0.21-1.72-1.67-3-3.4-3h-20.65c-1.73 0-3.19 1.29-3.4 3l-1.16 9.37h29.77z"/>
 <ellipse class="st0" cx="43.59" cy="48.09" rx="31.41" ry="25.24"/>
 <circle class="st2" cx="43.59" cy="47.52" r="11.88"/>
 <path class="st3" d="m36.91 51.96c-0.64 0-1.28-0.24-1.77-0.73-0.98-0.98-0.98-2.56 0-3.54l8.57-8.57c0.98-0.98 2.56-0.98 3.54 0s0.98 2.56 0 3.54l-8.57 8.57c-0.49 0.48-1.13 0.73-1.77 0.73z"/>
 <path d="m43.59 63.69c-8.91 0-16.17-7.25-16.17-16.17s7.25-16.17 16.17-16.17 16.17 7.25 16.17 16.17-7.25 16.17-16.17 16.17zm0-27.33c-6.16 0-11.17 5.01-11.17 11.17s5.01 11.17 11.17 11.17 11.17-5.01 11.17-11.17-5.01-11.17-11.17-11.17z"/>
</svg>

<?xml version="1.0" encoding="utf-8"?>
<!-- Generator: Adobe Illustrator 26.4.1, SVG Export Plug-In . SVG Version: 6.00 Build 0)  -->
<svg version="1.1" id="Layer_1" xmlns="http://www.w3.org/2000/svg" xmlns:xlink="http://www.w3.org/1999/xlink" x="0px" y="0px"
	 viewBox="0 0 75 73.33" style="enable-background:new 0 0 75 73.33;" xml:space="preserve">
<style type="text/css">
	.st0{fill-rule:evenodd;clip-rule:evenodd;fill:#BC83FB;}
	.st1{fill-rule:evenodd;clip-rule:evenodd;}
	.st2{fill-rule:evenodd;clip-rule:evenodd;fill:#FFFFFF;}
	.st3{fill:#BC83FB;}
</style>
<g>
	<g>
		<g>
			<path class="st0" d="M6.88,48.09h2.36C18.09,21.38-13.25,27.67,6.88,48.09z"/>
		</g>
	</g>
	<g>
		<g>
			<path class="st0" d="M6.88,48.09h2.36C18.09,74.79-13.25,68.5,6.88,48.09z"/>
		</g>
	</g>
	<g>
		<path d="M12.19,50.59H5.12c-1.38,0-2.5-1.12-2.5-2.5s1.12-2.5,2.5-2.5h7.07c1.38,0,2.5,1.12,2.5,2.5S13.57,50.59,12.19,50.59z"/>
	</g>
	<g>
		<g>
			<path class="st0" d="M37.38,19.7V5.94c0-3.28,2.66-5.94,5.94-5.94h13.94v12.71h-6.73c-1.24,0-2.24,1.01-2.24,2.24v4.75H37.38z"/>
		</g>
		<g>
			<rect x="54.76" y="0" width="5" height="12.71"/>
		</g>
	</g>
	<g>
		<path class="st1" d="M58.48,31.22l-1.16-9.37c-0.21-1.72-1.67-3-3.4-3H33.27c-1.73,0-3.19,1.29-3.4,3l-1.16,9.37H58.48z"/>
	</g>
	<g>
		<ellipse class="st0" cx="43.59" cy="48.09" rx="31.41" ry="25.24"/>
	</g>
	<g>
		<g>
			<circle class="st2" cx="43.59" cy="47.52" r="11.88"/>
		</g>
	</g>
	<g>
		<path class="st3" d="M36.91,51.96c-0.64,0-1.28-0.24-1.77-0.73c-0.98-0.98-0.98-2.56,0-3.54l8.57-8.57c0.98-0.98,2.56-0.98,3.54,0
			c0.98,0.98,0.98,2.56,0,3.54l-8.57,8.57C38.19,51.71,37.55,51.96,36.91,51.96z"/>
	</g>
	<g>
		<g>
			<path d="M43.59,63.69c-8.91,0-16.17-7.25-16.17-16.17s7.25-16.17,16.17-16.17s16.17,7.25,16.17,16.17S52.51,63.69,43.59,63.69z
				 M43.59,36.36c-6.16,0-11.17,5.01-11.17,11.17s5.01,11.17,11.17,11.17s11.17-5.01,11.17-11.17S49.75,36.36,43.59,36.36z"/>
		</g>
	</g>
</g>
</svg>
